src/lib/packages/icons/src/assets/line/note.svg

<svg width="24" height="24" viewBox="0 0 24 24" fill="none" xmlns="http://www.w3.org/2000/svg">
<path d="M16.75 11C16.75 11.414 16.414 11.75 16 11.75H8C7.586 11.75 7.25 11.414 7.25 11C7.25 10.586 7.586 10.25 8 10.25H16C16.414 10.25 16.75 10.586 16.75 11ZM13 14.25H8C7.586 14.25 7.25 14.586 7.25 15C7.25 15.414 7.586 15.75 8 15.75H13C13.414 15.75 13.75 15.414 13.75 15C13.75 14.586 13.414 14.25 13 14.25ZM21.75 6.82599V18.674C21.75 21.302 20.3021 22.75 17.6721 22.75H6.32788C3.69788 22.75 2.25 21.302 2.25 18.674V6.82599C2.25 4.19799 3.69788 2.75 6.32788 2.75H6.80591V2C6.80591 1.586 7.14191 1.25 7.55591 1.25C7.96991 1.25 8.30591 1.586 8.30591 2V2.75H11.25V2C11.25 1.586 11.586 1.25 12 1.25C12.414 1.25 12.75 1.586 12.75 2V2.75H15.6941V2C15.6941 1.586 16.0301 1.25 16.4441 1.25C16.8581 1.25 17.1941 1.586 17.1941 2V2.75H17.6721C20.3021 2.75 21.75 4.19799 21.75 6.82599ZM20.25 6.82599C20.25 5.01999 19.4791 4.25 17.6721 4.25H17.1941V5C17.1941 5.414 16.8581 5.75 16.4441 5.75C16.0301 5.75 15.6941 5.414 15.6941 5V4.25H12.75V5C12.75 5.414 12.414 5.75 12 5.75C11.586 5.75 11.25 5.414 11.25 5V4.25H8.30591V5C8.30591 5.414 7.96991 5.75 7.55591 5.75C7.14191 5.75 6.80591 5.414 6.80591 5V4.25H6.32788C4.52088 4.25 3.75 5.02099 3.75 6.82599V18.674C3.75 20.48 4.52088 21.25 6.32788 21.25H17.6721C19.4791 21.25 20.25 20.479 20.25 18.674V6.82599Z" fill="currentColor"/>
</svg>

<svg xmlns="http://www.w3.org/2000/svg" width="24" height="24" fill="none"><path fill="currentColor" d="M16.75 11a.75.75 0 0 1-.75.75H8a.75.75 0 0 1 0-1.5h8a.75.75 0 0 1 .75.75ZM13 14.25H8a.75.75 0 0 0 0 1.5h5a.75.75 0 0 0 0-1.5Zm8.75-7.424v11.848c0 2.628-1.448 4.076-4.078 4.076H6.328c-2.63 0-4.078-1.448-4.078-4.076V6.826c0-2.628 1.448-4.076 4.078-4.076h.478V2a.75.75 0 0 1 1.5 0v.75h2.944V2a.75.75 0 0 1 1.5 0v.75h2.944V2a.75.75 0 0 1 1.5 0v.75h.478c2.63 0 4.078 1.448 4.078 4.076Zm-1.5 0c0-1.806-.77-2.576-2.578-2.576h-.478V5a.75.75 0 0 1-1.5 0v-.75H12.75V5a.75.75 0 0 1-1.5 0v-.75H8.306V5a.75.75 0 0 1-1.5 0v-.75h-.478c-1.807 0-2.578.771-2.578 2.576v11.848c0 1.806.77 2.576 2.578 2.576h11.344c1.807 0 2.578-.771 2.578-2.576V6.826Z"/></svg>
